img/telegram.svg

<svg width="23" height="20" viewBox="0 0 23 20" fill="none" xmlns="http://www.w3.org/2000/svg">
<path d="M21.8364 2.56675L18.4735 17.3339C18.4735 17.3339 18.0032 18.3581 16.7099 17.8665L8.94968 12.6847L6.1279 11.4968L1.37777 10.104C1.37777 10.104 0.648795 9.8788 0.578192 9.38723C0.507589 8.89567 1.40131 8.62946 1.40131 8.62946L20.2841 2.1778C20.2841 2.1778 21.8362 1.58388 21.8362 2.567" fill="white"/>
<path d="M8.35243 17.1665C8.35243 17.1665 8.12591 17.148 7.84349 16.3696C7.56152 15.5914 6.12695 11.4952 6.12695 11.4952L17.532 5.18698C17.532 5.18698 18.1906 4.83878 18.167 5.18698C18.167 5.18698 18.2845 5.24848 17.9317 5.53519C17.5791 5.82203 8.97241 12.5603 8.97241 12.5603" fill="#D2E5F1"/>
<path d="M11.9238 14.6705L8.85451 17.1079C8.85451 17.1079 8.61446 17.2665 8.35205 17.1671L8.93982 12.6396" fill="#B5CFE4"/>
</svg>

<svg width="23" height="20" fill="none" xmlns="http://www.w3.org/2000/svg"><path d="m21.836 2.567-3.362 14.767s-.47 1.024-1.764.532l-7.76-5.181-2.822-1.188-4.75-1.393s-.73-.225-.8-.717c-.07-.491.823-.758.823-.758l18.883-6.451s1.552-.594 1.552.389" fill="#fff"/><path d="M8.352 17.166s-.226-.018-.509-.796c-.281-.779-1.716-4.875-1.716-4.875l11.405-6.308s.659-.348.635 0c0 0 .117.061-.235.348-.353.287-8.96 7.025-8.96 7.025" fill="#D2E5F1"/><path d="m11.924 14.67-3.07 2.438s-.24.159-.502.06l.588-4.528" fill="#B5CFE4"/></svg>
